www/assets/images/test_icons/flags/BY.svg

<svg fill="none" height="15" viewBox="0 0 21 15" width="21" xmlns="http://www.w3.org/2000/svg" xmlns:xlink="http://www.w3.org/1999/xlink"><mask id="a" height="15" maskUnits="userSpaceOnUse" width="21" x="0" y="0"><path d="m19 0h-17c-1.10457 0-2 .89543-2 2v11c0 1.1046.89543 2 2 2h17c1.1046 0 2-.8954 2-2v-11c0-1.10457-.8954-2-2-2z" fill="#fff"/></mask><g mask="url(#a)"><path d="m19 0h-17c-1.10457 0-2 .89543-2 2v11c0 1.1046.89543 2 2 2h17c1.1046 0 2-.8954 2-2v-11c0-1.10457-.8954-2-2-2z" fill="#d0091e"/><path clip-rule="evenodd" d="m3 0 2 1.5-2 1.5zm0 3 2 1.5-2 1.5zm0 3 2 1.5-2 1.5zm0 3 2 1.5-2 1.5zm0 3 2 1.5-2 1.5zm-1-12-2 1.5 2 1.5zm0 3-2 1.5 2 1.5zm0 3-2 1.5 2 1.5zm0 3-2 1.5 2 1.5zm0 3-2 1.5 2 1.5zm0-12h1v2h-1zm0 13h1v2h-1zm0-8h1v2h-1zm0-2h1v1h-1zm0 8h1v1h-1zm0-3h1v2h-1z" fill="#fff" fill-rule="evenodd"/><path clip-rule="evenodd" d="m5 11h16v4h-16z" fill="#46a753" fill-rule="evenodd"/><path d="m19 .5h-17c-.82843 0-1.5.67157-1.5 1.5v11c0 .8284.67157 1.5 1.5 1.5h17c.8284 0 1.5-.6716 1.5-1.5v-11c0-.82843-.6716-1.5-1.5-1.5z" stroke="#000" stroke-opacity=".1"/></g></svg>

<svg width="21" height="15" viewBox="0 0 21 15" fill="none" xmlns="http://www.w3.org/2000/svg">
<mask id="mask0_3_185" style="mask-type:alpha" maskUnits="userSpaceOnUse" x="0" y="0" width="21" height="15">
<path d="M19 0H2C0.89543 0 0 0.89543 0 2V13C0 14.1046 0.89543 15 2 15H19C20.1046 15 21 14.1046 21 13V2C21 0.89543 20.1046 0 19 0Z" fill="white"/>
</mask>
<g mask="url(#mask0_3_185)">
<path d="M19 0H2C0.89543 0 0 0.89543 0 2V13C0 14.1046 0.89543 15 2 15H19C20.1046 15 21 14.1046 21 13V2C21 0.89543 20.1046 0 19 0Z" fill="#D0091E"/>
<path fill-rule="evenodd" clip-rule="evenodd" d="M3 0L5 1.5L3 3V0ZM3 3L5 4.5L3 6V3ZM3 6L5 7.5L3 9V6ZM3 9L5 10.5L3 12V9ZM3 12L5 13.5L3 15V12ZM2 0L0 1.5L2 3V0ZM2 3L0 4.5L2 6V3ZM2 6L0 7.5L2 9V6ZM2 9L0 10.5L2 12V9ZM2 12L0 13.5L2 15V12ZM2 0H3V2H2V0ZM2 13H3V15H2V13ZM2 5H3V7H2V5ZM2 3H3V4H2V3ZM2 11H3V12H2V11ZM2 8H3V10H2V8Z" fill="white"/>
<path fill-rule="evenodd" clip-rule="evenodd" d="M5 11H21V15H5V11Z" fill="#46A753"/>
<path d="M19 0.5H2C1.17157 0.5 0.5 1.17157 0.5 2V13C0.5 13.8284 1.17157 14.5 2 14.5H19C19.8284 14.5 20.5 13.8284 20.5 13V2C20.5 1.17157 19.8284 0.5 19 0.5Z" stroke="black" stroke-opacity="0.1"/>
</g>
</svg>
